www/assets/icons/sanitizer.svg

<svg xmlns="http://www.w3.org/2000/svg" width="24" height="24" viewBox="0 0 24 24" fill='currentColor'><path d="M14.5 6.5C14.5 5.66 16 4 16 4s1.5 1.66 1.5 2.5c0 .83-.67 1.5-1.5 1.5s-1.5-.67-1.5-1.5m4 8.5a2.5 2.5 0 0 0 2.5-2.5c0-1.67-2.5-4.5-2.5-4.5S16 10.83 16 12.5a2.5 2.5 0 0 0 2.5 2.5M12 14h-2v-2H8v2H6v2h2v2h2v-2h2zm3-2v10H3V12c0-2.97 2.16-5.43 5-5.91V4H6V2h6c1.13 0 2.15.39 2.99 1.01l-1.43 1.43C13.1 4.17 12.57 4 12 4h-2v2.09c2.84.48 5 2.94 5 5.91"/></svg>

<svg width="24" height="24" viewBox="0 0 24 24" xmlns="http://www.w3.org/2000/svg" fill='currentColor'><path d="M14.5 6.5C14.5 5.66 16 4 16 4C16 4 17.5 5.66 17.5 6.5C17.5 7.33 16.83 8 16 8C15.17 8 14.5 7.33 14.5 6.5ZM18.5 15C19.88 15 21 13.88 21 12.5C21 10.83 18.5 8 18.5 8C18.5 8 16 10.83 16 12.5C16 13.88 17.12 15 18.5 15ZM12 14H10V12H8V14H6V16H8V18H10V16H12V14ZM15 12V22H3V12C3 9.03 5.16 6.57 8 6.09V4H6V2H12C13.13 2 14.15 2.39 14.99 3.01L13.56 4.44C13.1 4.17 12.57 4 12 4H10V6.09C12.84 6.57 15 9.03 15 12Z"/></svg>
